icons/database-fill.svg

<svg xmlns="http://www.w3.org/2000/svg" width="24" height="24" fill="none"><g clip-path="url(#a)"><g><path fill="#121212" d="M11 7V4C11 3.73478 11.1054 3.48043 11.2929 3.29289C11.4804 3.10536 11.7348 3 12 3H21C21.2652 3 21.5196 3.10536 21.7071 3.29289C21.8946 3.48043 22 3.73478 22 4V20C22 20.2652 21.8946 20.5196 21.7071 20.7071C21.5196 20.8946 21.2652 21 21 21H3C2.73478 21 2.48043 20.8946 2.29289 20.7071C2.10536 20.5196 2 20.2652 2 20V8C2 7.73478 2.10536 7.48043 2.29289 7.29289C2.48043 7.10536 2.73478 7 3 7H11ZM5 16V18H10V16H5ZM14 16V18H19V16H14ZM14 13V15H19V13H14ZM14 10V12H19V10H14ZM5 13V15H10V13H5Z"/></g></g><defs><clipPath id="a"><rect width="24" height="24" fill="white"/></clipPath></defs></svg>

<svg width="24" height="24" fill="none" xmlns="http://www.w3.org/2000/svg"><g clip-path="url(#a)"><path d="M11 7V4a1 1 0 0 1 1-1h9a1 1 0 0 1 1 1v16a1 1 0 0 1-1 1H3a1 1 0 0 1-1-1V8a1 1 0 0 1 1-1h8Zm-6 9v2h5v-2H5Zm9 0v2h5v-2h-5Zm0-3v2h5v-2h-5Zm0-3v2h5v-2h-5Zm-9 3v2h5v-2H5Z" /></g><defs><clipPath id="a"><path fill="#fff" d="M0 0h24v24H0z"/></clipPath></defs></svg>
